**harm	**harte	**kern	**silbe	**kern	**silbe	**rhyme	**timestamp	**phrase	**leadinstrument
*M4/4	*M4/4	*ICvox	*	*ICvox	*	*	*	*	*
*	*	*VRlead	*	*VRharmonize	*	*	*	*	*
*	*	*Hstimme	*	*Nstimme	*	*	*	*	*
*G:	*G:	*G:	*	*G:	*	*	*	*	*
*	*	*M4/4	*	*M4/4	*	*	*	*	*
*	*	*clefG2	*	*clefG2	*	*	*	*	*
1r;	N	r;	.	r;	.	.	0	.	r
=1	=1	=1	=1	=1	=1	=1	=1	=1	=1
*>Letter>A	*>Letter>A	*>Letter>A	*>Letter>A	*>Letter>A	*>Letter>A	*>Letter>A	*>Letter>A	*>Letter>A	*>Letter>A
*>Label>Intro	*>Label>Intro	*>Label>Intro	*>Label>Intro	*>Label>Intro	*>Label>Intro	*>Label>Intro	*>Label>Intro	*>Label>Intro	*>Label>Intro
2I7	G:maj13	1r	.	1r	.	.	0.302	newline	brass
2v7	D:min9	.	.	.	.	.	1.281	.	brass
=2	=2	=2	=2	=2	=2	=2	=2	=2	=2
2I7	G:maj13	1r	.	1r	.	.	2.26	.	brass
2-VI7	E-:maj13	.	.	.	.	.	3.239	.	brass
=3	=3	=3	=3	=3	=3	=3	=3	=3	=3
1III7	B:sus4(b7,9)	1r	.	1r	.	.	4.218	.	brass
=4	=4	=4	=4	=4	=4	=4	=4	=4	=4
2-III7	B-:maj13	1r	.	1r	.	.	6.177	newline	brass
2-IIm7	A-:13	.	.	.	.	.	7.195	.	brass
=5	=5	=5	=5	=5	=5	=5	=5	=5	=5
2-VII7f	F:maj9/4	1r	.	1r	.	.	8.214	.	brass
2I7	G:maj13	.	.	.	.	.	9.232	.	brass
=6	=6	=6	=6	=6	=6	=6	=6	=6	=6
1VII7	F#:sus4(b7,9)	1r	.	1r	.	.	10.251	.	brass
=7	=7	=7	=7	=7	=7	=7	=7	=7	=7
*>Letter>B	*>Letter>B	*>Letter>B	*>Letter>B	*>Letter>B	*>Letter>B	*>Letter>B	*>Letter>B	*>Letter>B	*>Letter>B
*>Label>Intro	*>Label>Intro	*>Label>Intro	*>Label>Intro	*>Label>Intro	*>Label>Intro	*>Label>Intro	*>Label>Intro	*>Label>Intro	*>Label>Intro
*M5/8	*M5/8	*	*	*	*	*	*M5/8	*M5/8	*M5/8
8%5-VII	F:maj	8%5r	.	8%5r	.	.	12.288	newline	piano
.	F:maj	.	.	.	.	.	.	.	.
=8	=8	=8	=8	=8	=8	=8	=8	=8	=8
8%5I	G:maj	8%5r	.	8%5r	.	.	13.599	.	piano
.	G:maj	.	.	.	.	.	.	.	.
=9	=9	=9	=9	=9	=9	=9	=9	=9	=9
8%5-VII	F:maj	8%5r	.	8%5r	.	.	14.91	.	piano
.	F:maj	.	.	.	.	.	.	.	.
=10	=10	=10	=10	=10	=10	=10	=10	=10	=10
8%5I	G:maj	8%5r	.	8%5r	.	.	16.22	.	piano
.	G:maj	.	.	.	.	.	.	.	.
=11	=11	=11	=11	=11	=11	=11	=11	=11	=11
8%5-VII	F:maj	8%5r	.	8%5r	.	.	17.531	newline	piano
.	F:maj	.	.	.	.	.	.	.	.
=12	=12	=12	=12	=12	=12	=12	=12	=12	=12
8%5I	G:maj	8%5r	.	8%5r	.	.	18.895	.	piano
.	G:maj	.	.	.	.	.	.	.	.
=13	=13	=13	=13	=13	=13	=13	=13	=13	=13
*M3/8	*M3/8	*M3/8	*	*M3/8	*	*	*M3/8	*M3/8	*M3/8
4.-VI	E-:maj(b9)	4.r	.	4.r	.	.	20.259	.	piano
=14	=14	=14	=14	=14	=14	=14	=14	=14	=14
4.-VI	E-:maj(b9)	4.r	.	4.r	.	.	21.078	.	piano
=15	=15	=15	=15	=15	=15	=15	=15	=15	=15
4.-VI7	E-:maj7(#11)	4.r	.	4.r	.	.	21.896	newline	brass
=16	=16	=16	=16	=16	=16	=16	=16	=16	=16
4.-VI7	E-:maj7(#11)	4.r	.	4.r	.	.	22.754	.	brass
=17	=17	=17	=17	=17	=17	=17	=17	=17	=17
*M4/4	*M4/4	*M4/4	*	*M4/4	*	*	*M4/4	*M4/4	*M4/4
1-VI7	E-:maj7(#11)	1r	.	1r	.	.	23.611	.	brass
=18	=18	=18	=18	=18	=18	=18	=18	=18	=18
*>Letter>C	*>Letter>C	*>Letter>C	*>Letter>C	*>Letter>C	*>Letter>C	*>Letter>C	*>Letter>C	*>Letter>C	*>Letter>C
*>Label>Instrumental	*>Label>Instrumental	*>Label>Instrumental	*>Label>Instrumental	*>Label>Instrumental	*>Label>Instrumental	*>Label>Instrumental	*>Label>Instrumental	*>Label>Instrumental	*>Label>Instrumental
1I7	G:maj7	1r	.	1r	.	.	25.898	newline	brass
=19	=19	=19	=19	=19	=19	=19	=19	=19	=19
1IV7	C:maj13	1r	.	1r	.	.	27.936	.	brass
=20	=20	=20	=20	=20	=20	=20	=20	=20	=20
1I7	G:maj7	1r	.	1r	.	.	29.974	.	brass
=21	=21	=21	=21	=21	=21	=21	=21	=21	=21
1IV7	C:maj13	1r	.	1r	.	.	32.012	.	brass
=22	=22	=22	=22	=22	=22	=22	=22	=22	=22
1I7	G:maj7	1r	.	1r	.	.	34.05	newline	brass
=23	=23	=23	=23	=23	=23	=23	=23	=23	=23
1IV7	C:maj13	1r	.	1r	.	.	36.06	.	brass
=24	=24	=24	=24	=24	=24	=24	=24	=24	=24
1I7	G:maj7	1r	.	1r	.	.	38.069	.	brass
=25	=25	=25	=25	=25	=25	=25	=25	=25	=25
1IV7	C:maj13	1r	.	1r	.	.	40.079	.	brass
=26	=26	=26	=26	=26	=26	=26	=26	=26	=26
*>Letter>D	*>Letter>D	*>Letter>D	*>Letter>D	*>Letter>D	*>Letter>D	*>Letter>D	*>Letter>D	*>Letter>D	*>Letter>D
*>Label>Bridge	*>Label>Bridge	*>Label>Bridge	*>Label>Bridge	*>Label>Bridge	*>Label>Bridge	*>Label>Bridge	*>Label>Bridge	*>Label>Bridge	*>Label>Bridge
2V	D:maj	1r	.	1r	.	.	42.089	newline	brass
2vi7	E:min7	.	.	.	.	.	43.127	.	brass
=27	=27	=27	=27	=27	=27	=27	=27	=27	=27
2-VII	F:maj6	1r	.	1r	.	.	44.165	.	brass
2vi7	E:min7	.	.	.	.	.	45.202	.	brass
=28	=28	=28	=28	=28	=28	=28	=28	=28	=28
*>Letter>E	*>Letter>E	*>Letter>E	*>Letter>E	*>Letter>E	*>Letter>E	*>Letter>E	*>Letter>E	*>Letter>E	*>Letter>E
*>Label>Verse	*>Label>Verse	*>Label>Verse	*>Label>Verse	*>Label>Verse	*>Label>Verse	*>Label>Verse	*>Label>Verse	*>Label>Verse	*>Label>Verse
1I	G:maj	4r	.	1r	.	.	46.24	newline	voice
.	.	8r	.	.	.	.	.	.	.
.	.	8D	As	.	.	.	.	.	.
.	.	8B	I	.	.	.	.	.	.
.	.	4c	was	.	.	.	.	.	.
.	.	[8d	wal	.	.	.	.	.	.
=29	=29	=29	=29	=29	=29	=29	=29	=29	=29
1-VII	F:maj	8d]	_	1r	.	.	48.26	.	voice
.	.	4c	king	.	.	.	.	.	.
.	.	[8B	down	.	.	.	.	.	.
.	.	8B]	_	.	.	.	.	.	.
.	.	4G	the	.	.	.	.	.	.
.	.	[8D	street	.	.	.	.	.	.
=30	=30	=30	=30	=30	=30	=30	=30	=30	=30
1-III7	B-:maj7	8D]	_	1r	.	.	50.281	.	voice
.	.	4G	one	.	.	.	.	.	.
.	.	[8G	day	.	.	.	.	.	.
.	.	4G]	_	.	.	.	.	.	.
.	.	4r	.	.	.	.	.	.	.
=31	=31	=31	=31	=31	=31	=31	=31	=31	=31
1-VI7	E-:maj13	2r	.	1r	.	.	52.301	.	voice
.	.	8r	.	.	.	.	.	.	.
.	.	4c	a	.	.	.	.	.	.
.	.	[8d	man	.	.	.	.	.	.
=32	=32	=32	=32	=32	=32	=32	=32	=32	=32
1-III7	B-:maj7	8d]	_	1r	.	.	54.321	newline	voice
.	.	4d	came	.	.	.	.	.	.
.	.	16cQ	_	.	.	.	.	.	.
.	.	16dQ	_	.	.	.	.	.	.
.	.	[8c	up	.	.	.	.	.	.
.	.	8c]	_	.	.	.	.	.	.
.	.	4B-	to	.	.	.	.	.	.
.	.	8cq	_	.	.	.	.	.	.
.	.	[8d	me	.	.	.	.	.	.
=33	=33	=33	=33	=33	=33	=33	=33	=33	=33
1-VI7	E-:maj13	8d]	_	1r	.	.	56.333	.	voice
.	.	4d	and	.	.	.	.	.	.
.	.	[8c	asked	.	.	.	.	.	.
.	.	8c]	_	.	.	.	.	.	.
.	.	4B-	me	.	.	.	.	.	.
.	.	[8d	what	.	.	.	.	.	.
=34	=34	=34	=34	=34	=34	=34	=34	=34	=34
1-III7	B-:maj7	8d]	_	1r	.	.	58.345	.	voice
.	.	4d	the	.	.	.	.	.	.
.	.	8dq	_	.	.	.	.	.	.
.	.	[8c	time	.	.	.	.	.	.
.	.	8c]	_	.	.	.	.	.	.
.	.	4B-	was	.	.	.	.	.	.
.	.	[8d	that	.	.	.	.	.	.
=35	=35	=35	=35	=35	=35	=35	=35	=35	=35
1-VI7	E-:maj13	8d]	_	1r	.	.	60.357	.	voice
.	.	4d	was	.	.	.	.	.	.
.	.	[8c	on	.	.	.	.	.	.
.	.	8c]	_	.	.	.	.	.	.
.	.	4B-	my	.	.	.	.	.	.
.	.	[8d	watch	.	.	.	.	.	.
=36	=36	=36	=36	=36	=36	=36	=36	=36	=36
1-VI7	E-:maj13	16d]	_	1r	.	.	62.369	.	voice
.	.	16c	_	.	.	.	.	.	.
.	.	[8d	_	.	.	.	.	.	.
.	.	4d_	_	.	.	.	.	.	.
.	.	4d]	_	.	.	.	.	.	.
.	.	4r	.	.	.	.	.	.	.
=37	=37	=37	=37	=37	=37	=37	=37	=37	=37
1-VI7	E-:maj13	24d	Yeah	1r	.	.	64.381	.	voice
.	.	24c	_	.	.	.	.	.	.
.	.	24B-	_	.	.	.	.	.	.
.	.	[8c	_	.	.	.	.	.	.
.	.	4c]	_	.	.	.	.	.	.
.	.	4r	.	.	.	.	.	.	.
.	.	4e-	I	.	.	.	.	.	.
=38	=38	=38	=38	=38	=38	=38	=38	=38	=38
*>Letter>D	*>Letter>D	*>Letter>D	*>Letter>D	*>Letter>D	*>Letter>D	*>Letter>D	*>Letter>D	*>Letter>D	*>Letter>D
*>Label>Bridge	*>Label>Bridge	*>Label>Bridge	*>Label>Bridge	*>Label>Bridge	*>Label>Bridge	*>Label>Bridge	*>Label>Bridge	*>Label>Bridge	*>Label>Bridge
2V	D:maj	8d	said	1r	.	.	66.393	newline	brass
.	.	16c	_	.	.	.	.	.	.
.	.	[16d	_	.	.	.	.	.	.
.	.	4d_	_	.	.	.	.	.	.
2vi7	E:min7	4d]	.	.	.	.	67.448	.	brass
.	.	4r	.	.	.	.	.	.	.
=39	=39	=39	=39	=39	=39	=39	=39	=39	=39
2-VII	F:maj6	1r	.	1r	.	.	68.503	.	brass
2vi7	E:min7	.	.	.	.	.	69.557	.	brass
=40	=40	=40	=40	=40	=40	=40	=40	=40	=40
*>Letter>C	*>Letter>C	*>Letter>C	*>Letter>C	*>Letter>C	*>Letter>C	*>Letter>C	*>Letter>C	*>Letter>C	*>Letter>C
*>Label>Chorus	*>Label>Chorus	*>Label>Chorus	*>Label>Chorus	*>Label>Chorus	*>Label>Chorus	*>Label>Chorus	*>Label>Chorus	*>Label>Chorus	*>Label>Chorus
.	.	.	.	8Eq 8cq	_	.	.	.	.
1I7	G:maj7	4r	.	[2.F# [2.d	I	.	70.612	newline	voice
.	.	12r	.	.	.	.	.	.	.
.	.	12r	.	.	.	.	.	.	.
.	.	12D	Does	.	.	.	.	.	.
.	.	12B	a-	.	.	.	.	.	.
.	.	12B	-ny-	.	.	.	.	.	.
.	.	12B	-bo-	.	.	.	.	.	.
.	.	12B	-dy	6F#] 6d]	_	.	.	.	.
.	.	12d	real-	.	.	.	.	.	.
.	.	12c	-ly	[12G [12e	don't	.	.	.	.
=41	=41	=41	=41	=41	=41	=41	=41	=41	=41
1IV7	C:maj13	8B	know	4G] 4e]	_	.	72.647	.	voice
.	.	8G	what	.	.	.	.	.	.
.	.	8r	.	2r	.	.	.	.	.
.	.	8G	time	.	.	.	.	.	.
.	.	12E	it	.	.	.	.	.	.
.	.	[6A	is	.	.	.	.	.	.
.	.	8A]	_	4r	.	.	.	.	.
.	.	8r	.	.	.	.	.	.	.
=42	=42	=42	=42	=42	=42	=42	=42	=42	=42
.	.	.	.	8Aq 8eq	_	.	.	.	.
1I7	G:maj7	4r	.	[2.B [2.f#	care	.	74.682	.	voice
.	.	12r	.	.	.	.	.	.	.
.	.	12r	.	.	.	.	.	.	.
.	.	12D	Does	.	.	.	.	.	.
.	.	12B	a-	.	.	.	.	.	.
.	.	12B	-ny-	.	.	.	.	.	.
.	.	12B	-bo-	.	.	.	.	.	.
.	.	12B	-dy	6B] 6f#]	_	.	.	.	.
.	.	12d	real-	.	.	.	.	.	.
.	.	[12c	-ly	[12c [12g	_	.	.	.	.
=43	=43	=43	=43	=43	=43	=43	=43	=43	=43
1IV7	C:maj13	8c]	_	4c] 4g]	_	.	76.717	.	voice
.	.	8Aq	_	.	.	.	.	.	.
.	.	[8B	care	.	.	.	.	.	.
.	.	4B]	_	4r	.	.	.	.	.
.	.	2r	.	8c 8g	a-	.	.	.	.
.	.	.	.	8d 8a	-bout	.	.	.	.
.	.	.	.	8r	.	.	.	.	.
.	.	.	.	8cq 8aq	_	.	.	.	.
.	.	.	.	[8d [8b	time	.	.	.	.
=44	=44	=44	=44	=44	=44	=44	=44	=44	=44
1I7	G:maj7	4r	.	2.d] 2.b]	_	.	78.752	newline	voice
.	.	8r	.	.	.	.	.	.	.
.	.	8D	If	.	.	.	.	.	.
.	.	8B	so,	.	.	.	.	.	.
.	.	4c	I	.	.	.	.	.	.
.	.	.	.	4r	.	.	.	.	.
.	.	8d	can't	.	.	.	.	.	.
=45	=45	=45	=45	=45	=45	=45	=45	=45	=45
1IV7	C:maj13	8B	i-	2r	.	.	80.769	.	voice
.	.	8B	-ma-	.	.	.	.	.	.
.	.	8G	-gine	.	.	.	.	.	.
.	.	[8G	why	.	.	A	.	.	.
.	.	4G]	_	4r	.	.	.	.	.
.	.	4r	.	8d 8g	Oh,	.	.	.	.
.	.	.	.	8Bq 8dq	_	.	.	.	.
.	.	.	.	[8c [8e	no,	.	.	.	.
=46	=46	=46	=46	=46	=46	=46	=46	=46	=46
1I7	G:maj7	4r	.	8c] 8e]	_	.	82.785	.	voice
.	.	.	.	8B 8d	_	.	.	.	.
.	.	8r	.	8G 8B	_	.	.	.	.
.	.	8D	We've	[8B [8d	no	.	.	.	.
.	.	8B	all	8B] 8d]	_	.	.	.	.
.	.	8c	got	8c 8e	_	.	.	.	.
.	.	8r	.	4r	.	.	.	.	.
.	.	8d	time	.	.	.	.	.	.
=47	=47	=47	=47	=47	=47	=47	=47	=47	=47
1IV7	C:maj13	8c	e-	1r	.	.	84.801	.	voice
.	.	8B	-nough	.	.	.	.	.	.
.	.	8G	to	.	.	.	.	.	.
.	.	[8G	cry	.	.	A	.	.	.
.	.	8G]	_	.	.	.	.	.	.
.	.	8r	.	.	.	.	.	.	.
.	.	4r	.	.	.	.	.	.	.
=48	=48	=48	=48	=48	=48	=48	=48	=48	=48
*>Letter>E	*>Letter>E	*>Letter>E	*>Letter>E	*>Letter>E	*>Letter>E	*>Letter>E	*>Letter>E	*>Letter>E	*>Letter>E
*>Label>Verse	*>Label>Verse	*>Label>Verse	*>Label>Verse	*>Label>Verse	*>Label>Verse	*>Label>Verse	*>Label>Verse	*>Label>Verse	*>Label>Verse
1I	G:maj	4r	.	1r	.	.	86.818	newline	voice
.	.	8r	.	.	.	.	.	.	.
.	.	8~D	And	.	.	.	.	.	.
.	.	8B	I	.	.	.	.	.	.
.	.	4c	was	.	.	.	.	.	.
.	.	8d	wal	.	.	.	.	.	.
=49	=49	=49	=49	=49	=49	=49	=49	=49	=49
1-VII	F:maj	8r	.	1r	.	.	88.797	.	voice
.	.	4c	king	.	.	.	.	.	.
.	.	8B-	down	.	.	.	.	.	.
.	.	8G	_	.	.	.	.	.	.
.	.	4G	the	.	.	.	.	.	.
.	.	8D	street	.	.	.	.	.	.
=50	=50	=50	=50	=50	=50	=50	=50	=50	=50
1-III7	B-:maj7	8r	.	1r	.	.	90.777	.	voice
.	.	4G	one	.	.	.	.	.	.
.	.	[8G	day	.	.	.	.	.	.
.	.	4G]	_	.	.	.	.	.	.
.	.	4r	.	.	.	.	.	.	.
=51	=51	=51	=51	=51	=51	=51	=51	=51	=51
1-VI7	E-:maj13	2r	.	1r	.	.	92.757	.	voice
.	.	8r	.	.	.	.	.	.	.
.	.	4c	a	.	.	.	.	.	.
.	.	8d	pret	.	.	.	.	.	.
=52	=52	=52	=52	=52	=52	=52	=52	=52	=52
1-III7	B-:maj7	8r	.	1r	.	.	94.737	newline	voice
.	.	4d	ty	.	.	b	.	.	.
.	.	16cQ	_	.	.	.	.	.	.
.	.	16dQ	_	.	.	.	.	.	.
.	.	[8c	la	.	.	.	.	.	.
.	.	8c]	_	.	.	.	.	.	.
.	.	4B-	dy	.	.	b	.	.	.
.	.	8cq	_	.	.	.	.	.	.
.	.	[8d	looked	.	.	.	.	.	.
=53	=53	=53	=53	=53	=53	=53	=53	=53	=53
1-VI7	E-:maj13	8d]	_	1r	.	.	96.774	.	voice
.	.	4d	at	.	.	.	.	.	.
.	.	[8c	me	.	.	B	.	.	.
.	.	8c]	_	.	.	.	.	.	.
.	.	4B-	and	.	.	.	.	.	.
.	.	[8d	said	.	.	.	.	.	.
=54	=54	=54	=54	=54	=54	=54	=54	=54	=54
1-III7	B-:maj7	8d]	_	1r	.	.	98.811	.	voice
.	.	4d	her	.	.	.	.	.	.
.	.	8dq	_	.	.	.	.	.	.
.	.	[8c	dia	.	.	.	.	.	.
.	.	8c]	_	.	.	.	.	.	.
.	.	4B-	mond	.	.	.	.	.	.
.	.	8d	watch	.	.	.	.	.	.
=55	=55	=55	=55	=55	=55	=55	=55	=55	=55
1-VI7	E-:maj13	8r	.	1r	.	.	100.848	.	voice
.	.	4d	had	.	.	.	.	.	.
.	.	[8c	stopped	.	.	.	.	.	.
.	.	8c]	_	.	.	.	.	.	.
.	.	4B-	cold	.	.	.	.	.	.
.	.	[8d	dead	.	.	C	.	.	.
=56	=56	=56	=56	=56	=56	=56	=56	=56	=56
1-VI7	E-:maj13	16d]	_	1r	.	.	102.885	.	voice
.	.	16c	_	.	.	.	.	.	.
.	.	[8d	_	.	.	.	.	.	.
.	.	4d_	_	.	.	.	.	.	.
.	.	4d_	_	.	.	.	.	.	.
.	.	8d]	_	.	.	.	.	.	.
.	.	8r	.	.	.	.	.	.	.
=57	=57	=57	=57	=57	=57	=57	=57	=57	=57
1-VI7	E-:maj13	2r	.	1r	.	.	104.922	.	voice
.	.	8r	.	.	.	.	.	.	.
.	.	8~D	And	.	.	.	.	.	.
.	.	4e-	I	.	.	.	.	.	.
=58	=58	=58	=58	=58	=58	=58	=58	=58	=58
*>Letter>D	*>Letter>D	*>Letter>D	*>Letter>D	*>Letter>D	*>Letter>D	*>Letter>D	*>Letter>D	*>Letter>D	*>Letter>D
*>Label>Bridge	*>Label>Bridge	*>Label>Bridge	*>Label>Bridge	*>Label>Bridge	*>Label>Bridge	*>Label>Bridge	*>Label>Bridge	*>Label>Bridge	*>Label>Bridge
2V	D:maj	8d	said	1r	.	C	106.959	newline	brass
.	.	16c	_	.	.	.	.	.	.
.	.	[16d	_	.	.	.	.	.	.
.	.	2.d_	_	.	.	.	.	.	.
2vi7	E:min7	.	.	.	.	.	108.01	.	brass
=59	=59	=59	=59	=59	=59	=59	=59	=59	=59
2-VII	F:maj6	8d]	_	1r	.	.	109.062	.	brass
.	.	8r	.	.	.	.	.	.	.
.	.	4r	.	.	.	.	.	.	.
2vi7	E:min7	2r	.	.	.	.	110.113	.	brass
=60	=60	=60	=60	=60	=60	=60	=60	=60	=60
*>Letter>C	*>Letter>C	*>Letter>C	*>Letter>C	*>Letter>C	*>Letter>C	*>Letter>C	*>Letter>C	*>Letter>C	*>Letter>C
*>Label>Chorus	*>Label>Chorus	*>Label>Chorus	*>Label>Chorus	*>Label>Chorus	*>Label>Chorus	*>Label>Chorus	*>Label>Chorus	*>Label>Chorus	*>Label>Chorus
.	.	.	.	8Eq 8cq	_	.	.	.	.
1I7	G:maj7	4r	.	[2.F# [2.d	I	.	111.165	newline	voice
.	.	12r	.	.	.	.	.	.	.
.	.	12r	.	.	.	.	.	.	.
.	.	12D	Does	.	.	.	.	.	.
.	.	12B	a-	.	.	.	.	.	.
.	.	12B	-ny-	.	.	.	.	.	.
.	.	12B	-bo-	.	.	.	.	.	.
.	.	12B	-dy	6F#] 6d]	_	.	.	.	.
.	.	12d	real-	.	.	.	.	.	.
.	.	12c	-ly	[12G [12e	don't	.	.	.	.
=61	=61	=61	=61	=61	=61	=61	=61	=61	=61
1IV7	C:maj13	8B	know	4G] 4e]	_	.	113.204	.	voice
.	.	8G	what	.	.	.	.	.	.
.	.	8r	.	2r	.	.	.	.	.
.	.	8G	time	.	.	.	.	.	.
.	.	12E	it	.	.	.	.	.	.
.	.	8Gq	_	.	.	.	.	.	.
.	.	[6A	is	.	.	.	.	.	.
.	.	8A]	_	4r	.	.	.	.	.
.	.	8r	.	.	.	.	.	.	.
=62	=62	=62	=62	=62	=62	=62	=62	=62	=62
.	.	.	.	8Aq 8eq	_	.	.	.	.
1I7	G:maj7	4r	.	[2.B [2.f#	care	.	115.244	.	voice
.	.	12r	.	.	.	.	.	.	.
.	.	12r	.	.	.	.	.	.	.
.	.	12D	Does	.	.	.	.	.	.
.	.	12B	a-	.	.	.	.	.	.
.	.	12B	-ny-	.	.	.	.	.	.
.	.	12B	-bo-	.	.	.	.	.	.
.	.	12B	-dy	6B] 6f#]	_	.	.	.	.
.	.	[12d	real	.	.	.	.	.	.
.	.	24d]	_	[12c [12g	_	.	.	.	.
.	.	[24c	ly	.	.	.	.	.	.
=63	=63	=63	=63	=63	=63	=63	=63	=63	=63
1IV7	C:maj13	8c]	_	4c] 4g]	_	.	117.284	.	voice
.	.	8Aq	_	.	.	.	.	.	.
.	.	[8B	care	.	.	.	.	.	.
.	.	4B]	_	4r	.	.	.	.	.
.	.	2r	.	8c 8g	a-	.	.	.	.
.	.	.	.	8d 8a	-bout	.	.	.	.
.	.	.	.	8r	.	.	.	.	.
.	.	.	.	8cq 8aq	_	.	.	.	.
.	.	.	.	[8d [8b	time	A	.	.	.
=64	=64	=64	=64	=64	=64	=64	=64	=64	=64
1I7	G:maj7	4r	.	2.d] 2.b]	_	.	119.324	newline	voice
.	.	8r	.	.	.	.	.	.	.
.	.	8D	If	.	.	.	.	.	.
.	.	8B	so,	.	.	.	.	.	.
.	.	4c	I	.	.	.	.	.	.
.	.	.	.	4r	.	.	.	.	.
.	.	8d	can't	.	.	.	.	.	.
=65	=65	=65	=65	=65	=65	=65	=65	=65	=65
1IV7	C:maj13	8B	i-	2r	.	.	121.332	.	voice
.	.	8B	-ma-	.	.	.	.	.	.
.	.	8G	-gine	.	.	.	.	.	.
.	.	[8G	why	.	.	A	.	.	.
.	.	4G]	_	4r	.	.	.	.	.
.	.	4r	.	8d 8g	Oh	.	.	.	.
.	.	.	.	8Bq 8dq	_	.	.	.	.
.	.	.	.	[8c [8e	no,	.	.	.	.
=66	=66	=66	=66	=66	=66	=66	=66	=66	=66
1I7	G:maj7	4r	.	8c] 8e]	_	.	123.34	.	voice
.	.	.	.	8B 8d	_	.	.	.	.
.	.	8r	.	8G 8B	_	.	.	.	.
.	.	8D	We've	[8B [8d	no	.	.	.	.
.	.	8B	all	8B] 8d]	_	.	.	.	.
.	.	8c	got	8c 8e	_	.	.	.	.
.	.	8r	.	4r	.	.	.	.	.
.	.	8d	time	.	.	.	.	.	.
=67	=67	=67	=67	=67	=67	=67	=67	=67	=67
1IV7	C:maj13	16c	e-	1r	.	.	125.348	.	voice
.	.	8B	-nough	.	.	.	.	.	.
.	.	[16G	to	.	.	.	.	.	.
.	.	8G]	_	.	.	.	.	.	.
.	.	8G	cry	.	.	A	.	.	.
.	.	2r	.	.	.	.	.	.	.
=68	=68	=68	=68	=68	=68	=68	=68	=68	=68
*>Letter>E	*>Letter>E	*>Letter>E	*>Letter>E	*>Letter>E	*>Letter>E	*>Letter>E	*>Letter>E	*>Letter>E	*>Letter>E
*>Label>Verse	*>Label>Verse	*>Label>Verse	*>Label>Verse	*>Label>Verse	*>Label>Verse	*>Label>Verse	*>Label>Verse	*>Label>Verse	*>Label>Verse
1I	G:maj	4r	.	1r	.	.	127.356	newline	voice
.	.	8r	.	.	.	.	.	.	.
.	.	8~D	And	.	.	.	.	.	.
.	.	8B	I	.	.	.	.	.	.
.	.	4c	was	.	.	.	.	.	.
.	.	8d	wal	.	.	.	.	.	.
=69	=69	=69	=69	=69	=69	=69	=69	=69	=69
1-VII	F:maj	8r	.	1r	.	.	129.368	.	voice
.	.	4c	king	.	.	.	.	.	.
.	.	8B-	down	.	.	.	.	.	.
.	.	8Bq	_	.	.	.	.	.	.
.	.	8B-	_	.	.	.	.	.	.
.	.	4G	the	.	.	.	.	.	.
.	.	8D	street	.	.	B	.	.	.
=70	=70	=70	=70	=70	=70	=70	=70	=70	=70
1-III7	B-:maj7	8r	.	2r	.	.	131.38	.	voice
.	.	4G	one	.	.	.	.	.	.
.	.	[8G	day	.	.	.	.	.	.
.	.	4G]	_	8r	.	.	.	.	.
.	.	.	.	16BB	Peo-	.	.	.	.
.	.	.	.	16BB	-ple	.	.	.	.
.	.	4r	.	16BB	run-	.	.	.	.
.	.	.	.	16BB	-ning	.	.	.	.
.	.	.	.	16BB	ev-	.	.	.	.
.	.	.	.	16BB	-'ry-	.	.	.	.
=71	=71	=71	=71	=71	=71	=71	=71	=71	=71
1-VI7	E-:maj13	2r	.	4BB	-where	.	133.393	.	voice
.	.	.	.	4r	.	.	.	.	.
.	.	8B-	Be-	2r	.	B	.	.	.
.	.	4c	-ing	.	.	.	.	.	.
.	.	[8d	pushed	.	.	.	.	.	.
=72	=72	=72	=72	=72	=72	=72	=72	=72	=72
1-III7	B-:maj7	8d]	_	12r	.	.	135.405	newline	voice
.	.	.	.	6BB	Don't	.	.	.	.
.	.	4d	and	.	.	.	.	.	.
.	.	.	.	6BB	know	.	.	.	.
.	.	16cQ	_	.	.	.	.	.	.
.	.	16dQ	_	.	.	.	.	.	.
.	.	[8c	shoved	.	.	.	.	.	.
.	.	.	.	[12C	where	.	.	.	.
.	.	8c]	_	8C]	_	.	.	.	.
.	.	4B-	by	16BB	to	.	.	.	.
.	.	.	.	16D	go	.	.	.	.
.	.	.	.	4r	.	.	.	.	.
.	.	8cq	_	.	.	.	.	.	.
.	.	8d	peo	.	.	B	.	.	.
=73	=73	=73	=73	=73	=73	=73	=73	=73	=73
1-VI7	E-:maj13	8r	.	4r	.	.	137.447	.	voice
.	.	4d	ple	.	.	.	.	.	.
.	.	.	.	16r	.	.	.	.	.
.	.	.	.	16BB	I	.	.	.	.
.	.	16cQ	_	.	.	.	.	.	.
.	.	16dQ	_	.	.	.	.	.	.
.	.	[8c	trying	8BB	don't	.	.	.	.
.	.	8c]	_	8BB	know	.	.	.	.
.	.	4B-	to	16C	where	.	.	.	.
.	.	.	.	16BB	I	.	.	.	.
.	.	.	.	4D	am.	.	.	.	.
.	.	8d	beat	.	.	B	.	.	.
=74	=74	=74	=74	=74	=74	=74	=74	=74	=74
1-III7	B-:maj7	8r	.	4r	.	.	139.49	.	voice
.	.	4d	the	.	.	.	.	.	.
.	.	.	.	8r	.	.	.	.	.
.	.	8dq	_	.	.	.	.	.	.
.	.	[8c	clock,	8C	I	.	.	.	.
.	.	8c]	_	8.C	can't	.	.	.	.
.	.	4B-	oh	.	.	D	.	.	.
.	.	.	.	[16C	see	.	.	.	.
.	.	.	.	8C]	_	.	.	.	.
.	.	[8d	no,	[8C	past	D	.	.	.
=75	=75	=75	=75	=75	=75	=75	=75	=75	=75
1-VI7	E-:maj13	8d]	_	16C]	_	.	141.533	.	voice
.	.	.	.	16C	the	.	.	.	.
.	.	4d	I	8C	next	.	.	.	.
.	.	.	.	8C	step	.	.	.	.
.	.	[8c	just	8r	.	.	.	.	.
.	.	8c]	_	2r	.	.	.	.	.
.	.	4B-	don't	.	.	.	.	.	.
.	.	8c#q	_	.	.	.	.	.	.
.	.	8d	know,	.	.	D	.	.	.
=76	=76	=76	=76	=76	=76	=76	=76	=76	=76
1-VI7	E-:maj13	8B-	_	4r	.	.	143.575	.	voice
.	.	8B-	I	.	.	.	.	.	.
.	.	8G	don't	8E	Don't	.	.	.	.
.	.	[8B-	know,	8E	have	.	.	.	.
.	.	8B-]	_	8E	time	.	.	.	.
.	.	8c	I	16E	to	.	.	.	.
.	.	.	.	16E	fi-	.	.	.	.
.	.	8B-	don't	16E	-gure	.	.	.	.
.	.	.	.	8E	out	.	.	.	.
.	.	8c#q	_	.	.	.	.	.	.
.	.	[8d	know	.	.	D	.	.	.
.	.	.	.	16D	the	.	.	.	.
=77	=77	=77	=77	=77	=77	=77	=77	=77	=77
1-VI7	E-:maj13	8d]	_	8.C	next	.	145.618	.	voice
.	.	8c#q	_	.	.	.	.	.	.
.	.	4.d	oh	.	.	D	.	.	.
.	.	.	.	[16C	step	.	.	.	.
.	.	.	.	16C]	_	.	.	.	.
.	.	.	.	8.r	.	.	.	.	.
.	.	8r	.	8AA	Don't	.	.	.	.
.	.	8~C	And	8BB	have	.	.	.	.
.	.	4e-	I	8C	time	.	.	.	.
.	.	.	.	16C	to	.	.	.	.
.	.	.	.	[16BB	look	.	.	.	.
=78	=78	=78	=78	=78	=78	=78	=78	=78	=78
*>Letter>D	*>Letter>D	*>Letter>D	*>Letter>D	*>Letter>D	*>Letter>D	*>Letter>D	*>Letter>D	*>Letter>D	*>Letter>D
*>Label>Bridge	*>Label>Bridge	*>Label>Bridge	*>Label>Bridge	*>Label>Bridge	*>Label>Bridge	*>Label>Bridge	*>Label>Bridge	*>Label>Bridge	*>Label>Bridge
2V	D:maj	8d	said	16BB]	_	.	147.661	newline	brass
.	.	.	.	16AA	a-	.	.	.	.
.	.	16c	_	8BB	-round	.	.	.	.
.	.	[16d	_	.	.	.	.	.	.
.	.	4d_	_	4r	.	.	.	.	.
2vi7	E:min7	4d]	_	8r	.	.	148.691	.	brass
.	.	.	.	8F	Just	.	.	.	.
.	.	8r	.	16E	run-	.	.	.	.
.	.	.	.	16E	-a-	.	.	.	.
.	.	[8f	yes,	8D	-round	.	.	.	.
=79	=79	=79	=79	=79	=79	=79	=79	=79	=79
2-VII	F:maj6	8f]	_	16D	(unintelligible)	.	149.721	.	brass
.	.	.	.	8.C	_	.	.	.	.
.	.	4e	I	.	.	.	.	.	.
.	.	.	.	8r	.	.	.	.	.
.	.	8dq	_	.	.	.	.	.	.
.	.	[8e	said	8E	_	.	.	.	.
2vi7	E:min7	8e]	_	16C	_	.	150.751	.	brass
.	.	.	.	16D	_	.	.	.	.
.	.	8B	_	8r	.	.	.	.	.
.	.	4r	.	4r	.	.	.	.	.
=80	=80	=80	=80	=80	=80	=80	=80	=80	=80
*>Letter>C	*>Letter>C	*>Letter>C	*>Letter>C	*>Letter>C	*>Letter>C	*>Letter>C	*>Letter>C	*>Letter>C	*>Letter>C
*>Label>Chorus	*>Label>Chorus	*>Label>Chorus	*>Label>Chorus	*>Label>Chorus	*>Label>Chorus	*>Label>Chorus	*>Label>Chorus	*>Label>Chorus	*>Label>Chorus
.	.	.	.	8Eq 8cq	_	.	.	.	.
1I7	G:maj7	4r	.	[2.F# [2.d	I	.	151.781	newline	voice
.	.	12r	.	.	.	.	.	.	.
.	.	12r	.	.	.	.	.	.	.
.	.	12D	Does	.	.	.	.	.	.
.	.	12B	a-	.	.	.	.	.	.
.	.	12B	-ny-	.	.	.	.	.	.
.	.	12B	-no-	.	.	.	.	.	.
.	.	12B	-dy	6F#] 6d]	_	.	.	.	.
.	.	12d	real-	.	.	.	.	.	.
.	.	12c	-ly	[12G [12e	don't	.	.	.	.
=81	=81	=81	=81	=81	=81	=81	=81	=81	=81
1IV7	C:maj13	8B	know	4G] 4e]	_	.	153.823	.	voice
.	.	8G	what	.	.	.	.	.	.
.	.	8r	.	2r	.	.	.	.	.
.	.	8G	time	.	.	.	.	.	.
.	.	12E	it	.	.	.	.	.	.
.	.	8Gq	_	.	.	.	.	.	.
.	.	[6A	is	.	.	.	.	.	.
.	.	8A]	_	4r	.	.	.	.	.
.	.	8r	.	.	.	.	.	.	.
=82	=82	=82	=82	=82	=82	=82	=82	=82	=82
.	.	.	.	8Aq 8eq	_	.	.	.	.
1I7	G:maj7	4r	.	[2.B [2.f#	care	.	155.865	.	voice
.	.	12r	.	.	.	.	.	.	.
.	.	12r	.	.	.	.	.	.	.
.	.	12D	Does	.	.	.	.	.	.
.	.	12B	a-	.	.	.	.	.	.
.	.	12B	-ny-	.	.	.	.	.	.
.	.	12B	-bo-	.	.	.	.	.	.
.	.	12B	-dy	6B] 6f#]	_	.	.	.	.
.	.	[12d	real	.	.	.	.	.	.
.	.	24d]	_	[12c [12g	_	.	.	.	.
.	.	[24c	ly	.	.	.	.	.	.
=83	=83	=83	=83	=83	=83	=83	=83	=83	=83
1IV7	C:maj13	8c]	_	4c] 4g]	_	.	157.907	.	voice
.	.	8Aq	_	.	.	.	.	.	.
.	.	[8B	care	.	.	.	.	.	.
.	.	4B]	_	4r	.	.	.	.	.
.	.	2r	.	8c 8g	a-	.	.	.	.
.	.	.	.	8d 8a	-bout	.	.	.	.
.	.	.	.	8r	.	.	.	.	.
.	.	.	.	8cq 8aq	_	.	.	.	.
.	.	.	.	[8d [8b	time	.	.	.	.
=84	=84	=84	=84	=84	=84	=84	=84	=84	=84
1I7	G:maj7	4r	.	2.d] 2.b]	_	.	159.949	newline	voice
.	.	8r	.	.	.	.	.	.	.
.	.	8D	If	.	.	.	.	.	.
.	.	8B	so,	.	.	.	.	.	.
.	.	4c	I	.	.	.	.	.	.
.	.	.	.	4r	.	.	.	.	.
.	.	8d	can't	.	.	.	.	.	.
=85	=85	=85	=85	=85	=85	=85	=85	=85	=85
1IV7	C:maj13	8B	i-	2r	.	.	161.966	.	voice
.	.	8B	-ma-	.	.	.	.	.	.
.	.	8G	-gine	.	.	.	.	.	.
.	.	[8G	why	.	.	A	.	.	.
.	.	4G]	_	4r	.	.	.	.	.
.	.	4r	.	8d 8g	Oh,	.	.	.	.
.	.	.	.	8Bq 8dq	_	.	.	.	.
.	.	.	.	[8c [8e	no,	.	.	.	.
=86	=86	=86	=86	=86	=86	=86	=86	=86	=86
1I7	G:maj7	4r	.	8c] 8e]	_	.	163.984	.	voice
.	.	.	.	8B 8d	_	.	.	.	.
.	.	8r	.	8G 8B	_	.	.	.	.
.	.	8D	We've	[8B [8d	no	.	.	.	.
.	.	8B	all	8B] 8d]	_	.	.	.	.
.	.	8c	got	8c 8e	_	.	.	.	.
.	.	8r	.	4r	.	.	.	.	.
.	.	8d	time	.	.	.	.	.	.
=87	=87	=87	=87	=87	=87	=87	=87	=87	=87
1IV7	C:maj13	16c	e-	1r	.	.	166.002	.	voice
.	.	8B	-nough	.	.	.	.	.	.
.	.	16G	to	.	.	.	.	.	.
.	.	8r	.	.	.	.	.	.	.
.	.	[8A	cry	.	.	A	.	.	.
.	.	4A]	_	.	.	.	.	.	.
.	.	4r	.	.	.	.	.	.	.
=88	=88	=88	=88	=88	=88	=88	=88	=88	=88
*>Letter>D	*>Letter>D	*>Letter>D	*>Letter>D	*>Letter>D	*>Letter>D	*>Letter>D	*>Letter>D	*>Letter>D	*>Letter>D
*>Label>Bridge	*>Label>Bridge	*>Label>Bridge	*>Label>Bridge	*>Label>Bridge	*>Label>Bridge	*>Label>Bridge	*>Label>Bridge	*>Label>Bridge	*>Label>Bridge
2V	D:maj	1r	.	1r	.	.	168.02	newline	brass
2vi7	E:min7	.	.	.	.	.	169.028	.	brass
=89	=89	=89	=89	=89	=89	=89	=89	=89	=89
2-VII	F:maj6	2r	.	1r	.	.	170.036	.	brass
2vi7	E:min7	10f	Ev-	.	.	.	171.045	.	brass
.	.	10e	-'ry-	.	.	.	.	.	.
.	.	10d	-bo-	.	.	.	.	.	.
.	.	10B	-dy's	.	.	.	.	.	.
.	.	[10d	worr	.	.	.	.	.	.
=90	=90	=90	=90	=90	=90	=90	=90	=90	=90
*>Letter>C2	*>Letter>C2	*>Letter>C2	*>Letter>C2	*>Letter>C2	*>Letter>C2	*>Letter>C2	*>Letter>C2	*>Letter>C2	*>Letter>C2
*>Label>Chorus	*>Label>Chorus	*>Label>Chorus	*>Label>Chorus	*>Label>Chorus	*>Label>Chorus	*>Label>Chorus	*>Label>Chorus	*>Label>Chorus	*>Label>Chorus
.	.	.	.	8Eq 8cq	_	.	.	.	.
1I7	G:maj7	8d]	_	[2.F# [2.d	I	.	172.053	newline	voice
.	.	8dq	_	.	.	.	.	.	.
.	.	8e	'yin	.	.	.	.	.	.
.	.	4r	.	.	.	.	.	.	.
.	.	2r	.	.	.	.	.	.	.
.	.	.	.	6F#] 6d]	_	.	.	.	.
.	.	.	.	[12G [12e	don't	.	.	.	.
=91	=91	=91	=91	=91	=91	=91	=91	=91	=91
1IV7	C:maj13	1r	.	4G] 4e]	_	.	174.052	.	voice
.	.	.	.	2r	.	.	.	.	.
.	.	.	.	4r	.	.	.	.	.
=92	=92	=92	=92	=92	=92	=92	=92	=92	=92
.	.	.	.	8Aq 8eq	_	.	.	.	.
1I7	G:maj7	2r	.	[2.B [2.f#	care	.	176.05	.	voice
.	.	8B	I	.	.	.	.	.	.
.	.	8d	don't	.	.	.	.	.	.
.	.	8r	.	6B] 6f#]	_	.	.	.	.
.	.	8e	care	.	.	.	.	.	.
.	.	.	.	[12c [12g	_	.	.	.	.
=93	=93	=93	=93	=93	=93	=93	=93	=93	=93
1IV7	C:maj13	32d	_	4c] 4g]	_	.	178.049	.	voice
.	.	[16.e	_	.	.	.	.	.	.
.	.	16.e]	_	.	.	.	.	.	.
.	.	32d	_	.	.	.	.	.	.
.	.	8B	_	4r	.	.	.	.	.
.	.	8r	.	.	.	.	.	.	.
.	.	2r	.	8c 8g	a-	.	.	.	.
.	.	.	.	8d 8a	-bout	.	.	.	.
.	.	.	.	8r	.	.	.	.	.
.	.	.	.	8cq 8aq	_	.	.	.	.
.	.	.	.	[8d [8b	time	.	.	.	.
=94	=94	=94	=94	=94	=94	=94	=94	=94	=94
1I7	G:maj7	2r	.	2.d] 2.b]	_	.	180.048	newline	voice
.	.	8B	A-	.	.	.	.	.	.
.	.	8d	-bout	.	.	.	.	.	.
.	.	8r	.	4r	.	.	.	.	.
.	.	8dq	_	.	.	.	.	.	.
.	.	[8e	time	.	.	.	.	.	.
=95	=95	=95	=95	=95	=95	=95	=95	=95	=95
1IV7	C:maj13	4e]	_	2r	.	.	182.095	.	voice
.	.	4r	.	.	.	.	.	.	.
.	.	2r	.	4r	.	.	.	.	.
.	.	.	.	8d 8g	Oh,	.	.	.	.
.	.	.	.	8Bq 8dq	_	.	.	.	.
.	.	.	.	[8c [8e	no,	.	.	.	.
=96	=96	=96	=96	=96	=96	=96	=96	=96	=96
1I7	G:maj7	2r	.	8c] 8e]	_	.	184.143	.	voice
.	.	.	.	8B 8d	_	.	.	.	.
.	.	.	.	8G 8B	_	.	.	.	.
.	.	.	.	[8B [8d	no	.	.	.	.
.	.	8B	I	8B] 8d]	_	.	.	.	.
.	.	8d	don't	8c 8e	_	.	.	.	.
.	.	8r	.	4r	.	.	.	.	.
.	.	8e	care	.	.	.	.	.	.
=97	=97	=97	=97	=97	=97	=97	=97	=97	=97
1IV7	C:maj13	32d	_	1r	.	.	186.19	.	voice
.	.	[16.e	_	.	.	.	.	.	.
.	.	16.e]	_	.	.	.	.	.	.
.	.	32d	_	.	.	.	.	.	.
.	.	8B	_	.	.	.	.	.	.
.	.	8r	.	.	.	.	.	.	.
.	.	2r	.	.	.	.	.	.	.
=98	=98	=98	=98	=98	=98	=98	=98	=98	=98
*>Letter>F	*>Letter>F	*>Letter>F	*>Letter>F	*>Letter>F	*>Letter>F	*>Letter>F	*>Letter>F	*>Letter>F	*>Letter>F
*>Label>Outro	*>Label>Outro	*>Label>Outro	*>Label>Outro	*>Label>Outro	*>Label>Outro	*>Label>Outro	*>Label>Outro	*>Label>Outro	*>Label>Outro
2-VII	F:maj	1r	.	1r	.	.	188.237	newline	brass
2-III7	B-:maj7	.	.	.	.	.	189.264	.	brass
=99	=99	=99	=99	=99	=99	=99	=99	=99	=99
2-VI7	E-:maj7	1r	.	1r	.	.	190.29	.	brass
2-VII	F:maj	.	.	.	.	.	191.317	.	brass
=100	=100	=100	=100	=100	=100	=100	=100	=100	=100
1I7	G:maj7	1r	.	1r	.	.	192.343	.	brass
1r;	N	r;	.	1r	.	.	197.989	.	r
1r;	N	r;	.	1r	.	.	200.021	.	r
*-	*-	*-	*-	*-	*-	*-	*-	*-	*-
!!!BillboardChartDate: 1970/11/07
!!!BillboardPeak: 7
!!!BillboardWeeksOnChart: 13
!!!COC: Chicago
!!!ENC: Nathaniel Condit-Schultz
!!!EST: Awating manual error checking and editing.
!!!OTL: Does Anybody Really Know What Time It Is?
!!!RDF**harte: Chris Harte's syntax, used by MIREX
!!!RDF**harmony: **recip + pitch class of root + harmonic quality
!!!RDF**leadinstrument: original McGill primary instrumentation annotation
!!!RDF**phrase: newline = linebreak in original McGill transcription
!!!RDF**timestamp: McGill audio timestamp in seconds
!!!RDT: 2017/01/12/
!!!SampleActualRank: 72
!!!SampleID#: 0700
!!!SampleTargetRank: 74
!!!MBID: 680052ce-a0e0-42f3-b372-d2d6da012eee
